X:1 
T:Over the Hills and Far Away
C:Traditional
Q:1/4=120
V:1
M:4/4
L:1/8    
K:G
z8 |GA BA GA BA |G2 E2 E2 D2 |GA BA GA BG |c2 A2 A4 |
GA BA GA BA |G2 E2 c4 |E2 DC D2 GA |c2 A2 A4 |
d3 c B2 A2 |G2 E2 E4 |d3 c B2 AB |c2 A2 A4 |
d3 c B2 A2 |G2 E2 c4 |E2 DC D2 GA |c2 A2 A4 |]
   
